X:124
T:Blue Angel, The
T:King's Favourite
R:jig
C:Liam King
D:Sean Keane: Jig It in Style
Z:id:hn-jig-124
M:6/8
K:D
f2d dcd|Bdg Adf|GBe FAd|cBA bag|f2d dcd|Bdg Adf|GBe FAd|cBc d2e:|
fdB B^AB|fdB Bcd|c^AF FEF|fgf ede|fdB B^AB|fdB Bcd|c^AF fgf|edc B2e:|

